X: 39383
T: Tantan's
R: jig
M: 6/8
K: Eminor
|:EBA BAB|GBG ^FE^F|G2G AGA|BcB AG^F|
EBA BAB|GBG ^FE^F|G^FG AGA|BG^F E3:|
|:EB, ^FB, GB,|E^FG ^FED|EB, ^FB, GB,|BcB AG^F|
EC ^FC GC|E^FG ^FED|G^FG AGA|BG^F E3:|

